T: King Of The Fairies
M: 4/4
L: 1/8
K: Edor
E>^DE>F G>FG>A | B3 A G>FG>A | B>E (3EEE E>F (3GFE | F>GF>E D3 B |EzE>F GzG>A | B>AG>B d3 c | B2 E2 G<FE>^D | E2 E2 E2 :|e2 B2- B>de>f |g>ag>f e>fe>^d | e2 B2 B>^AB>c |d2 d>c B>c (3dcB |e2 B2 (3Bcd e>f | g>ag>f e>fe>d | (3Bcd e>g f>e (3dfe | e2- e>^d e2 e>f ||g3 e f2 f>d| e>dB>c d3 e |d>BA>G F<GA>B | d>BA>F G<FE>D ||B>E (3EE^D E>FG>A | B2 e2 e>^de>f | e2 B2- B>AG>F | E2 (3EEE E2 :|
